X:611
T: "Kuhreigen"
N: Z1291
O: Europa, Mitteleuropa, Schweiz
R: Handwerker -, Bauern - Lied
M: 3/8
L: 1/16
K: G
G2B2c2 | d4(3edc | d4(3edc | dBG2A2 | G4z2 |
G2B2c2 | d4(3edc | d4(3edc | dBG2A2 | G4z2 |
A2D2D2 | B4G2 | A2D2D2 | B4G2 | A2D4 |
G2B2c2 | d4(3BGA | D6 |
G2B2c2 | d4(3BGA | G6

@@@ Tune index: 10369
